build/documents/ZIPOutline.svg

<svg xmlns="http://www.w3.org/2000/svg" fill="none" viewBox="0 0 24 24" focusable="false"><path fill="none" d="M0 0H24V24H0z"/><path fill="#74767B" fill-rule="evenodd" d="M5 6L5 11C3.34315 11 2 12.3431 2 14L2 18C2 19.6569 3.34315 21 5 21L19 21C20.6569 21 22 19.6569 22 18L22 14C22 12.3431 20.6569 11 19 11L19 9.17966C19 8.42148 18.7129 7.69141 18.1965 7.13629L15.2385 3.95662C14.671 3.34655 13.8752 3 13.042 3L8 3C6.34315 3 5 4.34315 5 6ZM8 4.3L13.042 4.3C13.1461 4.3 13.2491 4.30954 13.3499 4.32811L13.3499 7.04926C13.3499 8.12621 14.223 8.99926 15.2999 8.99926L17.6904 8.99925C17.6968 9.05892 17.7 9.11913 17.7 9.17966L17.7 11L6.3 11L6.3 6C6.3 5.06112 7.06112 4.3 8 4.3ZM14.6499 7.04926L14.6499 5.23254L16.9447 7.69926L15.2999 7.69926C14.9409 7.69926 14.6499 7.40824 14.6499 7.04926ZM19 12.3L5 12.3C4.06112 12.3 3.3 13.0611 3.3 14L3.3 18C3.3 18.9389 4.06112 19.7 5 19.7L19 19.7C19.9389 19.7 20.7 18.9389 20.7 18L20.7 14C20.7 13.0611 19.9389 12.3 19 12.3ZM15.0001 18.4081C15.3591 18.4081 15.6501 18.117 15.6501 17.7581L15.6501 17.1856L16.3182 17.1856C17.3109 17.1856 18.1156 16.3809 18.1156 15.3882C18.1156 14.3955 17.3109 13.5908 16.3182 13.5908L15.0001 13.5908C14.6411 13.5908 14.3501 13.8818 14.3501 14.2408L14.3501 17.7581C14.3501 18.117 14.6411 18.4081 15.0001 18.4081ZM6.21768 14.2442C6.21768 13.8852 6.50869 13.5942 6.86768 13.5942L9.24762 13.5942C9.48819 13.5942 9.7091 13.7271 9.82183 13.9396C9.93457 14.1521 9.9207 14.4095 9.78579 14.6087L8.09302 17.1079L9.24762 17.1079C9.6066 17.1079 9.89762 17.3989 9.89762 17.7579C9.89762 18.1169 9.6066 18.4079 9.24762 18.4079L6.86768 18.4079C6.62711 18.4079 6.40621 18.275 6.29347 18.0625C6.18074 17.8499 6.1946 17.5925 6.32952 17.3934L8.02228 14.8942L6.86768 14.8942C6.50869 14.8942 6.21768 14.6032 6.21768 14.2442ZM12.0001 13.5942C12.3591 13.5942 12.6501 13.8852 12.6501 14.2442L12.6501 17.7614C12.6501 18.1204 12.3591 18.4114 12.0001 18.4114C11.6411 18.4114 11.3501 18.1204 11.3501 17.7614L11.3501 14.2442C11.3501 13.8852 11.6411 13.5942 12.0001 13.5942ZM16.8156 15.3882C16.8156 15.6629 16.5929 15.8856 16.3182 15.8856L15.6501 15.8856L15.6501 14.8908L16.3182 14.8908C16.5929 14.8908 16.8156 15.1135 16.8156 15.3882Z"/></svg>

<svg xmlns="http://www.w3.org/2000/svg" fill="none" viewBox="0 0 24 24" focusable="false"><path fill="none" d="M0 0h24v24H0z"/><path fill="#74767B" fill-rule="evenodd" d="M5 6v5c-1.66 0-3 1.34-3 3v4c0 1.65 1.34 3 3 3h14c1.65 0 3-1.35 3-3v-4c0-1.66-1.35-3-3-3V9.17c0-.75-.29-1.48-.81-2.04l-2.96-3.18c-.56-.61-1.36-.95-2.19-.95H8C6.34 3 5 4.34 5 6m3-1.71h5.04q.15 0 .3.03v2.72c0 1.08.88 1.95 1.95 1.95h2.4c0 .06.01.12.01.18V11H6.3V6c0-.94.76-1.71 1.7-1.71m6.64 2.75V5.23l2.3 2.46h-1.65c-.35 0-.65-.29-.65-.65M19 12.3H5c-.94 0-1.7.76-1.7 1.7v4c0 .93.76 1.7 1.7 1.7h14c.93 0 1.7-.77 1.7-1.7v-4c0-.94-.77-1.7-1.7-1.7m-3.35 5.45c0 .36-.3.65-.65.65-.36 0-.65-.29-.65-.65v-3.51c0-.36.29-.65.65-.65h1.31c1 0 1.8.8 1.8 1.79 0 1-.8 1.8-1.8 1.8h-.66zm-9.44-3.51c0-.36.29-.65.65-.65h2.38c.24 0 .46.13.58.34.11.22.1.47-.04.67l-1.69 2.5h1.15c.36 0 .65.29.65.65s-.29.65-.65.65H6.86a.64.64 0 0 1-.57-.34.67.67 0 0 1 .03-.67l1.7-2.5H6.86c-.36 0-.65-.29-.65-.65m5.79-.65c.35 0 .65.29.65.65v3.52c0 .36-.3.65-.65.65-.36 0-.65-.29-.65-.65v-3.52c0-.36.29-.65.65-.65m4.31 2.29a.495.495 0 1 0 0-.99h-.66v.99z"/></svg>
